X:59
T:Garry Owen 
C:The Special Favorite of Theodore Roosevelt, President U.S.A.From 1901.to 1909.
B:American Veteran Fifer #59
M:6/8
L:1/8
Q:1/8=300
K:G
|: g/f/|edc BAG|BcB Bgf|edc BAG|ABA Agf|edc BAG|BcB B2c|def gdB|B>AA Az :|
|:B/c/|d2B d2B|d2B dgf|e2 c e2 c|e2 c e2 f|g2 a b2 a|g2 e d2B|def gdB|AzA Az :|
% Although the edition of AVF used for this transcription indicates "...First Edition 1905, Second Edition in Preparation"
% the reference to the end of Roosevelt's term in 1909 suggests this was published thereafteer.
